src/assets/icons/real-estate/land.svg

<svg width="48" height="48" viewBox="0 0 48 48" fill="none" xmlns="http://www.w3.org/2000/svg">
<rect width="48" height="48" fill="white"/>
<path fill-rule="evenodd" clip-rule="evenodd" d="M34.2497 24.3451C34.2417 24.3411 34.2367 24.3331 34.2287 24.3291L31.2708 22.9061L33.7557 21.6052L36.7627 22.9921L34.2497 24.3451ZM24 29.865L21.0311 28.2661L24.15 26.6331L27.1609 28.1621L24 29.865ZM14.2463 21.6042L17.0212 23.0121L14.1073 24.5371L11.2373 22.9921L14.2463 21.6042ZM24 17.1022L26.2909 18.1592L23.952 19.3842L21.5551 18.2312L24 17.1022ZM26.1979 20.4652L28.5829 19.2172L31.4648 20.5472L29.0239 21.8241L26.1979 20.4652ZM19.1991 19.3182L21.7421 20.5412L19.1961 21.8731L16.5612 20.5352L19.1991 19.3182ZM16.2322 25.6821L19.2091 24.1241L21.9621 25.5221L18.9061 27.1211L16.2322 25.6821ZM24.137 24.3831L21.3851 22.9861L23.989 21.6222L26.8139 22.9821L24.137 24.3831ZM29.3049 27.0081L26.3249 25.4941L29.0619 24.0631L32.0788 25.5141L29.3049 27.0081ZM39.4186 22.0151L24.419 15.0922C24.153 14.9693 23.847 14.9693 23.581 15.0922L8.58141 22.0151C8.23742 22.1741 8.01243 22.5141 8.00043 22.8921C7.98943 23.2711 8.19242 23.6241 8.52641 23.8041L23.526 31.881C23.674 31.96 23.837 32 24 32C24.163 32 24.326 31.96 24.474 31.881L39.4736 23.8041C39.8076 23.6241 40.0106 23.2711 39.9996 22.8921C39.9876 22.5141 39.7626 22.1741 39.4186 22.0151Z" fill="#253238"/>
</svg>

<svg width="48" height="48" viewBox="0 0 48 48" fill="none" xmlns="http://www.w3.org/2000/svg"><path fill-rule="evenodd" clip-rule="evenodd" d="M34.25 24.345c-.008-.004-.013-.012-.021-.016l-2.958-1.423 2.485-1.3 3.007 1.386-2.513 1.353zM24 29.865l-2.969-1.599 3.119-1.633 3.01 1.53L24 29.864zm-9.754-8.26l2.775 1.407-2.914 1.525-2.87-1.545 3.01-1.388zM24 17.101l2.29 1.057-2.338 1.225-2.397-1.153L24 17.102zm2.198 3.363l2.385-1.248 2.882 1.33-2.441 1.277-2.826-1.359zm-6.999-1.147l2.543 1.223-2.546 1.332-2.635-1.338 2.638-1.217zm-2.967 6.364l2.977-1.558 2.753 1.398-3.056 1.6-2.674-1.44zm7.905-1.299l-2.752-1.397 2.604-1.364 2.825 1.36-2.677 1.401zm5.168 2.625l-2.98-1.514 2.737-1.43 3.017 1.45-2.774 1.494zm10.114-4.993l-15-6.923a.998.998 0 00-.838 0l-15 6.923a1.002 1.002 0 00-.055 1.79l15 8.076a1.007 1.007 0 00.948 0l15-8.077a1.002 1.002 0 00-.055-1.789z" fill="#253238"/></svg>
